; generated by PrusaSlicer 2.3.1+x64 on 2021-06-28 at 16:47:03 UTC

; 

; external perimeters extrusion width = 0.60mm
; perimeters extrusion width = 0.50mm
; infill extrusion width = 0.50mm
; solid infill extrusion width = 0.50mm
; top infill extrusion width = 0.45mm
; first layer extrusion width = 0.42mm

M73 P0 R21
M73 Q0 S21
M201 X1000 Y1000 Z200 E5000 ; sets maximum accelerations, mm/sec^2
M203 X200 Y200 Z12 E120 ; sets maximum feedrates, mm/sec
M204 P1250 R1250 T1250 ; sets acceleration (P, T) and retract acceleration (R), mm/sec^2
M205 X8.00 Y8.00 Z0.40 E4.50 ; sets the jerk limits, mm/sec
M205 S0 T0 ; sets the minimum extruding and travel feed rate, mm/sec
M107
;TYPE:Custom
M862.3 P "MK3S" ; printer model check
M862.1 P0.4 ; nozzle diameter check
M115 U3.9.3 ; tell printer latest fw version
G90 ; use absolute coordinates
M83 ; extruder relative mode
M104 S215 ; set extruder temp
M140 S60 ; set bed temp
M190 S60 ; wait for bed temp
M109 S215 ; wait for extruder temp
G28 W ; home all without mesh bed level
G80 ; mesh bed leveling
G1 Y-3.0 F1000.0 ; go outside print area
G92 E0.0
G1 X60.0 E9.0 F1000.0 ; intro line
G1 X100.0 E12.5 F1000.0 ; intro line
G92 E0.0
M221 S95

; Don't change E values below. Excessive value can damage the printer.

M907 E538 ; set extruder motor current
G21 ; set units to millimeters
G90 ; use absolute coordinates
M83 ; use relative distances for extrusion
M900 K0.05 ; Filament gcode LA 1.5
M900 K30 ; Filament gcode LA 1.0
;LAYER_CHANGE
;Z:0.2
;HEIGHT:0.2
;BEFORE_LAYER_CHANGE
G92 E0.0
;0.2


G1 E-0.80000 F2100.000
G1 Z0.400 F10800.000
;AFTER_LAYER_CHANGE
;0.2
G1 X84.303 Y86.727
G1 Z0.200
G1 E0.80000 F2100.000
M204 S1000
;TYPE:Skirt
;WIDTH:0.42
G1 F1200.000
G1 X84.997 Y86.622 E0.02201
G1 X181.000 Y86.624 E3.01009
G1 X181.892 Y86.798 E0.02849
G1 X182.653 Y87.293 E0.02849
G1 X183.173 Y88.038 E0.02849
G1 X183.376 Y88.920 E0.02837
G1 X183.367 Y105.218 E0.51101
M73 P1 R21
M73 Q1 S21
G1 X183.202 Y105.896 E0.02190
G1 X182.847 Y106.498 E0.02190
G1 X182.329 Y106.972 E0.02201
G1 X181.699 Y107.273 E0.02190
G1 X85.297 Y123.359 E3.06443
G1 X68.787 Y123.368 E0.51765
G1 X68.108 Y123.204 E0.02190
G1 X67.503 Y122.848 E0.02201
G1 X67.029 Y122.330 E0.02201
G1 X66.728 Y121.700 E0.02190
G1 X66.623 Y121.017 E0.02166
G1 X66.623 Y104.982 E0.50278
G1 X66.689 Y104.442 E0.01704
G1 X66.877 Y103.932 E0.01704
G1 X67.311 Y103.329 E0.02331
G1 X83.332 Y87.307 E0.71040
G1 X83.782 Y86.959 E0.01787
G1 X84.248 Y86.751 E0.01599
; printing object LeftTrack_GR.stl id:0 copy 0
;WIPE_START
G1 F8640.000
G1 X84.997 Y86.622 E-0.17551
G1 X87.529 Y86.622 E-0.58449
;WIPE_END
G1 E-0.04000 F2100.000
G1 Z0.600 F10800.000
G1 X102.123 Y92.389
G1 Z0.200
G1 E0.80000 F2100.000
;TYPE:Perimeter
G1 F1200.000
G1 X102.313 Y91.805 E0.01928
G1 X102.620 Y91.272 E0.01928
G1 X103.032 Y90.815 E0.01928
G1 X103.529 Y90.454 E0.01928
G1 X104.091 Y90.203 E0.01928
G1 X104.693 Y90.076 E0.01928
G1 X105.307 Y90.076 E0.01928
G1 X105.909 Y90.203 E0.01928
G1 X106.471 Y90.454 E0.01928
G1 X106.968 Y90.815 E0.01928
G1 X107.380 Y91.272 E0.01928
G1 X107.687 Y91.805 E0.01928
G1 X107.877 Y92.389 E0.01928
G1 X107.941 Y93.001 E0.01928
G1 X107.877 Y93.612 E0.01928
G1 X107.686 Y94.201 E0.01940
G1 X107.356 Y94.757 E0.02027
G1 X106.968 Y95.187 E0.01815
G1 X106.471 Y95.548 E0.01928
G1 X105.909 Y95.798 E0.01928
G1 X105.307 Y95.926 E0.01928
G1 X104.693 Y95.926 E0.01928
G1 X104.091 Y95.798 E0.01928
G1 X103.529 Y95.548 E0.01928
G1 X103.032 Y95.187 E0.01928
G1 X102.620 Y94.730 E0.01928
G1 X102.313 Y94.197 E0.01928
G1 X102.123 Y93.612 E0.01928
G1 X102.059 Y93.001 E0.01928
G1 X102.117 Y92.449 E0.01740
G1 X102.492 Y92.488 F10800.000
;TYPE:External perimeter
G1 F1200.000
G1 X102.659 Y91.959 E0.01742
G1 X102.927 Y91.495 E0.01680
G1 X103.286 Y91.097 E0.01680
G1 X103.719 Y90.782 E0.01680
G1 X104.208 Y90.564 E0.01680
G1 X104.732 Y90.453 E0.01680
G1 X105.268 Y90.453 E0.01680
G1 X105.792 Y90.564 E0.01680
G1 X106.281 Y90.782 E0.01680
G1 X106.715 Y91.097 E0.01680
G1 X107.073 Y91.495 E0.01680
G1 X107.341 Y91.959 E0.01680
G1 X107.506 Y92.468 E0.01680
G1 X107.562 Y93.001 E0.01680
G1 X107.506 Y93.534 E0.01680
G1 X107.340 Y94.044 E0.01684
G1 X107.050 Y94.532 E0.01779
G1 X106.715 Y94.905 E0.01574
G1 X106.281 Y95.220 E0.01680
G1 X105.792 Y95.438 E0.01680
G1 X105.268 Y95.549 E0.01680
G1 X104.732 Y95.549 E0.01680
G1 X104.208 Y95.438 E0.01680
G1 X103.719 Y95.220 E0.01680
G1 X103.286 Y94.905 E0.01680
G1 X102.927 Y94.507 E0.01680
G1 X102.659 Y94.043 E0.01680
G1 X102.494 Y93.534 E0.01680
G1 X102.438 Y93.001 E0.01680
G1 X102.485 Y92.548 E0.01428
G1 X102.193 Y92.223 F10800.000
;WIPE_START
G1 F8640.000
G1 X102.659 Y91.959 E-0.14189
G1 X102.927 Y91.495 E-0.12368
G1 X103.286 Y91.097 E-0.12369
G1 X103.719 Y90.782 E-0.12368
G1 X104.208 Y90.564 E-0.12369
G1 X104.731 Y90.453 E-0.12337
;WIPE_END
G1 E-0.04000 F2100.000
G1 Z0.600 F10800.000
G1 X91.941 Y93.001
G1 Z0.200
G1 E0.80000 F2100.000
;TYPE:Perimeter
G1 F1200.000
G1 X91.877 Y93.612 E0.01928
G1 X91.687 Y94.197 E0.01928
G1 X91.380 Y94.730 E0.01928
G1 X90.968 Y95.187 E0.01928
G1 X90.471 Y95.548 E0.01928
G1 X89.909 Y95.798 E0.01928
G1 X89.307 Y95.926 E0.01928
G1 X88.693 Y95.926 E0.01928
G1 X88.091 Y95.798 E0.01928
G1 X87.529 Y95.548 E0.01928
G1 X87.032 Y95.187 E0.01928
G1 X86.620 Y94.730 E0.01928
G1 X86.313 Y94.197 E0.01928
G1 X86.123 Y93.612 E0.01928
G1 X86.059 Y93.001 E0.01928
G1 X86.123 Y92.389 E0.01928
G1 X86.313 Y91.805 E0.01928
G1 X86.620 Y91.272 E0.01928
G1 X87.032 Y90.815 E0.01928
G1 X87.529 Y90.454 E0.01928
G1 X88.058 Y90.218 E0.01815
G1 X88.689 Y90.076 E0.02027
G1 X89.307 Y90.076 E0.01940
G1 X89.909 Y90.203 E0.01928
G1 X90.471 Y90.454 E0.01928
G1 X90.968 Y90.815 E0.01928
G1 X91.380 Y91.272 E0.01928
G1 X91.689 Y91.808 E0.01940
G1 X91.881 Y92.425 E0.02027
G1 X91.935 Y92.941 E0.01627
G1 X91.560 Y92.981 F10800.000
;TYPE:External perimeter
G1 F1200.000
G1 X91.506 Y93.534 E0.01742
G1 X91.341 Y94.043 E0.01680
G1 X91.073 Y94.507 E0.01680
G1 X90.715 Y94.905 E0.01680
G1 X90.281 Y95.220 E0.01680
G1 X89.792 Y95.438 E0.01680
G1 X89.268 Y95.549 E0.01680
G1 X88.732 Y95.549 E0.01680
G1 X88.208 Y95.438 E0.01680
G1 X87.719 Y95.220 E0.01680
G1 X87.286 Y94.905 E0.01680
G1 X86.927 Y94.507 E0.01680
G1 X86.659 Y94.043 E0.01680
G1 X86.494 Y93.534 E0.01680
G1 X86.438 Y93.001 E0.01680
G1 X86.494 Y92.468 E0.01680
G1 X86.659 Y91.959 E0.01680
M73 Q2 S21
G1 X86.927 Y91.495 E0.01680
G1 X87.286 Y91.097 E0.01680
G1 X87.719 Y90.782 E0.01680
M73 P2 R21
G1 X88.178 Y90.578 E0.01574
G1 X88.731 Y90.453 E0.01779
G1 X89.268 Y90.453 E0.01684
G1 X89.792 Y90.564 E0.01680
G1 X90.281 Y90.782 E0.01680
G1 X90.715 Y91.097 E0.01680
G1 X91.073 Y91.495 E0.01680
G1 X91.341 Y91.960 E0.01684
G1 X91.510 Y92.502 E0.01779
G1 X91.554 Y92.921 E0.01322
G1 X91.908 Y93.179 F10800.000
;WIPE_START
G1 F8640.000
G1 X91.506 Y93.534 E-0.14189
G1 X91.341 Y94.043 E-0.12369
G1 X91.073 Y94.507 E-0.12368
G1 X90.715 Y94.905 E-0.12368
G1 X90.281 Y95.220 E-0.12368
G1 X89.793 Y95.437 E-0.12337
;WIPE_END
G1 E-0.04000 F2100.000
G1 Z0.600 F10800.000
G1 X75.380 Y107.272
G1 Z0.200
G1 E0.80000 F2100.000
;TYPE:Perimeter
G1 F1200.000
G1 X75.689 Y107.808 E0.01940
G1 X75.881 Y108.425 E0.02027
G1 X75.941 Y109.001 E0.01815
G1 X75.877 Y109.612 E0.01928
G1 X75.687 Y110.197 E0.01928
G1 X75.380 Y110.730 E0.01928
G1 X74.968 Y111.187 E0.01928
G1 X74.471 Y111.548 E0.01928
G1 X73.909 Y111.798 E0.01928
G1 X73.307 Y111.926 E0.01928
G1 X72.693 Y111.926 E0.01928
G1 X72.091 Y111.798 E0.01928
G1 X71.529 Y111.548 E0.01928
G1 X71.032 Y111.187 E0.01928
G1 X70.620 Y110.730 E0.01928
G1 X70.313 Y110.197 E0.01928
G1 X70.123 Y109.612 E0.01928
G1 X70.059 Y109.001 E0.01928
G1 X70.123 Y108.389 E0.01928
G1 X70.313 Y107.805 E0.01928
G1 X70.620 Y107.272 E0.01928
G1 X71.032 Y106.815 E0.01928
G1 X71.529 Y106.454 E0.01928
G1 X72.091 Y106.203 E0.01928
G1 X72.693 Y106.076 E0.01928
G1 X73.307 Y106.076 E0.01928
G1 X73.909 Y106.203 E0.01928
G1 X74.471 Y106.454 E0.01928
G1 X74.968 Y106.815 E0.01928
G1 X75.340 Y107.227 E0.01740
G1 X75.059 Y107.480 F10800.000
;TYPE:External perimeter
G1 F1200.000
G1 X75.341 Y107.960 E0.01746
G1 X75.510 Y108.502 E0.01779
G1 X75.562 Y109.001 E0.01574
G1 X75.506 Y109.534 E0.01680
G1 X75.341 Y110.043 E0.01680
G1 X75.073 Y110.507 E0.01680
G1 X74.715 Y110.905 E0.01680
G1 X74.281 Y111.220 E0.01680
G1 X73.792 Y111.438 E0.01680
G1 X73.268 Y111.549 E0.01680
G1 X72.732 Y111.549 E0.01680
G1 X72.208 Y111.438 E0.01680
G1 X71.719 Y111.220 E0.01680
G1 X71.286 Y110.905 E0.01680
G1 X70.927 Y110.507 E0.01680
G1 X70.659 Y110.043 E0.01680
G1 X70.494 Y109.534 E0.01680
G1 X70.438 Y109.001 E0.01680
G1 X70.494 Y108.468 E0.01680
G1 X70.659 Y107.959 E0.01680
G1 X70.927 Y107.495 E0.01680
G1 X71.286 Y107.097 E0.01680
G1 X71.719 Y106.782 E0.01680
G1 X72.208 Y106.564 E0.01680
G1 X72.732 Y106.453 E0.01680
G1 X73.268 Y106.453 E0.01680
G1 X73.792 Y106.564 E0.01680
G1 X74.281 Y106.782 E0.01680
G1 X74.715 Y107.097 E0.01680
G1 X75.019 Y107.435 E0.01428
G1 X75.457 Y107.436 F10800.000
;WIPE_START
G1 F8640.000
G1 X75.341 Y107.960 E-0.14220
G1 X75.510 Y108.502 E-0.13098
G1 X75.562 Y109.001 E-0.11592
G1 X75.506 Y109.534 E-0.12368
G1 X75.341 Y110.043 E-0.12369
G1 X75.073 Y110.506 E-0.12352
;WIPE_END
G1 E-0.04000 F2100.000
G1 Z0.600 F10800.000
G1 X166.123 Y93.612
G1 Z0.200
G1 E0.80000 F2100.000
;TYPE:Perimeter
G1 F1200.000
G1 X166.059 Y93.001 E0.01928
G1 X166.123 Y92.389 E0.01928
G1 X166.313 Y91.805 E0.01928
G1 X166.620 Y91.272 E0.01928
G1 X167.032 Y90.815 E0.01928
G1 X167.529 Y90.454 E0.01928
G1 X168.058 Y90.218 E0.01815
G1 X168.689 Y90.076 E0.02027
G1 X169.307 Y90.076 E0.01940
G1 X169.909 Y90.203 E0.01928
G1 X170.471 Y90.454 E0.01928
G1 X170.968 Y90.815 E0.01928
G1 X171.380 Y91.272 E0.01928
G1 X171.689 Y91.808 E0.01940
G1 X171.881 Y92.425 E0.02027
G1 X171.941 Y93.001 E0.01815
G1 X171.877 Y93.613 E0.01928
G1 X171.687 Y94.197 E0.01928
G1 X171.380 Y94.730 E0.01928
G1 X170.968 Y95.187 E0.01928
G1 X170.471 Y95.548 E0.01928
G1 X169.909 Y95.798 E0.01928
G1 X169.307 Y95.926 E0.01928
G1 X168.693 Y95.926 E0.01928
G1 X168.091 Y95.798 E0.01928
G1 X167.529 Y95.548 E0.01928
G1 X167.032 Y95.187 E0.01928
G1 X166.620 Y94.730 E0.01928
G1 X166.313 Y94.197 E0.01928
G1 X166.141 Y93.670 E0.01740
G1 X166.500 Y93.553 F10800.000
;TYPE:External perimeter
G1 F1200.000
G1 X166.438 Y93.001 E0.01742
G1 X166.494 Y92.468 E0.01680
G1 X166.659 Y91.959 E0.01680
G1 X166.927 Y91.495 E0.01680
G1 X167.286 Y91.097 E0.01680
G1 X167.719 Y90.782 E0.01680
G1 X168.178 Y90.578 E0.01574
G1 X168.731 Y90.453 E0.01779
G1 X169.268 Y90.453 E0.01684
G1 X169.792 Y90.564 E0.01680
G1 X170.281 Y90.782 E0.01680
G1 X170.715 Y91.097 E0.01680
G1 X171.073 Y91.495 E0.01680
G1 X171.341 Y91.960 E0.01684
G1 X171.510 Y92.502 E0.01779
G1 X171.562 Y93.001 E0.01574
G1 X171.506 Y93.534 E0.01680
G1 X171.341 Y94.043 E0.01680
G1 X171.073 Y94.507 E0.01679
G1 X170.715 Y94.905 E0.01680
G1 X170.281 Y95.220 E0.01680
G1 X169.792 Y95.438 E0.01680
G1 X169.268 Y95.549 E0.01680
G1 X168.732 Y95.549 E0.01680
G1 X168.208 Y95.438 E0.01679
G1 X167.719 Y95.220 E0.01680
G1 X167.286 Y94.905 E0.01680
G1 X166.927 Y94.507 E0.01680
G1 X166.659 Y94.043 E0.01680
G1 X166.519 Y93.610 E0.01428
G1 X166.119 Y93.432 F10800.000
;WIPE_START
G1 F8640.000
G1 X166.438 Y93.001 E-0.14189
G1 X166.494 Y92.468 E-0.12368
G1 X166.659 Y91.959 E-0.12368
G1 X166.927 Y91.495 E-0.12369
G1 X167.286 Y91.097 E-0.12368
G1 X167.718 Y90.783 E-0.12337
;WIPE_END
G1 E-0.04000 F2100.000
G1 Z0.600 F10800.000
G1 X91.301 Y104.214
G1 Z0.200
G1 E0.80000 F2100.000
;TYPE:Perimeter
G1 F1200.000
G1 X84.213 Y111.302 E0.31431
G1 X84.213 Y120.214 E0.27941
G1 X69.787 Y120.214 E0.45231
G1 X69.787 Y105.327 E0.46677
G1 X85.326 Y89.788 E0.68902
G1 X180.213 Y89.788 E2.97511
M73 P3 R20
M73 Q3 S21
G1 X180.213 Y104.214 E0.45231
G1 X91.361 Y104.214 E2.78588
G1 X91.458 Y104.591 F10800.000
;TYPE:External perimeter
G1 F1200.000
G1 X84.590 Y111.459 E0.30452
G1 X84.590 Y120.591 E0.28633
G1 X69.410 Y120.591 E0.47596
G1 X69.410 Y105.171 E0.48349
G1 X85.170 Y89.411 E0.69882
G1 X180.590 Y89.411 E2.99183
M73 P4 R20
M73 Q4 S20
G1 X180.590 Y104.591 E0.47596
G1 X91.518 Y104.591 E2.79280
G1 X91.101 Y104.411 F10800.000
;WIPE_START
G1 F8640.000
G1 X89.180 Y106.908 E-0.76000
;WIPE_END
G1 E-0.04000 F2100.000
G1 Z0.600 F10800.000
G1 X88.071 Y89.999
G1 Z0.200
G1 E0.80000 F2100.000
;TYPE:Gap fill
;WIDTH:0.105529
G1 F1200.000
G1 X87.460 Y90.094 E0.00322
;WIPE_START
G1 F8640.000
G1 X88.071 Y89.999 E-0.14282
;WIPE_END
G1 E-0.65718 F2100.000
G1 Z0.600 F10800.000
G1 X70.105 Y107.487
G1 Z0.200
G1 E0.80000 F2100.000
;WIDTH:0.218778
G1 F1200.000
G1 X70.060 Y107.701 E0.00320
;WIDTH:0.211114
G1 X70.039 Y107.834 E0.00187
;WIDTH:0.17185
G1 X70.018 Y107.966 E0.00144
;WIDTH:0.132585
G1 X69.997 Y108.098 E0.00100
;WIPE_START
G1 F8640.000
G1 X70.018 Y107.966 E-0.03092
;WIPE_END
G1 E-0.76908 F2100.000
G1 Z0.600 F10800.000
G1 X69.997 Y109.904
G1 Z0.200
G1 E0.80000 F2100.000
;WIDTH:0.132585
G1 F1200.000
G1 X70.018 Y110.036 E0.00100
;WIDTH:0.171849
G1 X70.039 Y110.168 E0.00144
;WIDTH:0.211112
G1 X70.060 Y110.300 E0.00187
;WIDTH:0.218778
G1 X70.105 Y110.514 E0.00320
;WIPE_START
G1 F8640.000
G1 X70.060 Y110.300 E-0.05053
;WIPE_END
G1 E-0.74947 F2100.000
G1 Z0.600 F10800.000
G1 X167.460 Y90.094
G1 Z0.200
G1 E0.80000 F2100.000
;WIDTH:0.10549
G1 F1200.000
G1 X168.071 Y89.999 E0.00322
;WIPE_START
G1 F8640.000
G1 X167.460 Y90.094 E-0.14279
;WIPE_END
G1 E-0.65721 F2100.000
G1 Z0.600 F10800.000
G1 X180.100 Y90.665
G1 Z0.200
G1 E0.80000 F2100.000
;TYPE:Solid infill
;WIDTH:0.420602
G1 F1200.000
G1 X179.506 Y90.071 E0.02637
G1 X178.972 Y90.071 E0.01677
G1 X179.930 Y91.029 E0.04256
G1 X179.930 Y91.563 E0.01677
G1 X178.438 Y90.071 E0.06628
G1 X177.904 Y90.071 E0.01677
G1 X179.930 Y92.097 E0.09000
G1 X179.930 Y92.631 E0.01677
G1 X177.369 Y90.071 E0.11373
G1 X176.835 Y90.071 E0.01677
G1 X179.930 Y93.166 E0.13745
M73 Q5 S20
G1 X179.930 Y93.700 E0.01677
G1 X176.301 Y90.071 E0.16117
G1 X175.767 Y90.071 E0.01677
G1 X179.930 Y94.234 E0.18489
M73 P5 R20
G1 X179.930 Y94.768 E0.01677
G1 X175.233 Y90.071 E0.20861
G1 X174.699 Y90.071 E0.01677
G1 X179.930 Y95.302 E0.23233
G1 X179.930 Y95.836 E0.01677
G1 X174.165 Y90.071 E0.25606
G1 X173.631 Y90.071 E0.01677
G1 X179.930 Y96.370 E0.27978
G1 X179.930 Y96.904 E0.01677
G1 X173.096 Y90.071 E0.30350
G1 X172.562 Y90.071 E0.01677
G1 X179.930 Y97.439 E0.32722
G1 X179.930 Y97.973 E0.01677
G1 X172.028 Y90.071 E0.35094
G1 X171.494 Y90.071 E0.01677
G1 X179.930 Y98.507 E0.37467
G1 X179.930 Y99.041 E0.01677
G1 X170.960 Y90.071 E0.39839
G1 X170.426 Y90.071 E0.01677
G1 X179.930 Y99.575 E0.42211
G1 X179.930 Y100.109 E0.01677
G1 X172.146 Y92.325 E0.34572
G1 X172.219 Y92.932 E0.01919
G1 X179.930 Y100.643 E0.34249
G1 X179.930 Y101.177 E0.01677
G1 X172.181 Y93.428 E0.34416
G1 X172.155 Y93.672 E0.00769
G1 X172.090 Y93.872 E0.00661
G1 X179.930 Y101.712 E0.34819
G1 X179.930 Y102.246 E0.01677
G1 X171.959 Y94.275 E0.35401
G1 X171.770 Y94.620 E0.01235
G1 X179.930 Y102.780 E0.36242
G1 X179.930 Y103.314 E0.01677
G1 X171.564 Y94.948 E0.37156
G1 X171.311 Y95.229 E0.01188
G1 X179.930 Y103.848 E0.38280
G1 X179.930 Y103.931 E0.00261
G1 X179.479 Y103.931 E0.01417
G1 X171.035 Y95.488 E0.37500
G1 X170.726 Y95.712 E0.01201
G1 X178.945 Y103.931 E0.36502
G1 X178.411 Y103.931 E0.01677
G1 X170.379 Y95.899 E0.35673
G1 X170.009 Y96.063 E0.01270
M73 Q6 S20
G1 X177.877 Y103.931 E0.34942
M73 P6 R20
G1 X177.343 Y103.931 E0.01677
G1 X169.571 Y96.159 E0.34516
G1 X169.337 Y96.209 E0.00750
G1 X169.086 Y96.209 E0.00788
G1 X176.808 Y103.931 E0.34295
G1 X176.274 Y103.931 E0.01677
G1 X168.302 Y95.959 E0.35406
;WIPE_START
G1 F8640.000
G1 X170.629 Y98.286 E-0.76000
;WIPE_END
G1 E-0.04000 F2100.000
G1 Z0.600 F10800.000
G1 X167.182 Y90.566
G1 Z0.200
G1 E0.80000 F2100.000
G1 F1200.000
G1 X166.687 Y90.071 E0.02199
G1 X166.153 Y90.071 E0.01677
G1 X166.768 Y90.686 E0.02731
G1 X166.515 Y90.967 E0.01188
G1 X165.619 Y90.071 E0.03979
G1 X165.085 Y90.071 E0.01677
G1 X166.291 Y91.277 E0.05357
G1 X166.095 Y91.616 E0.01228
G1 X164.551 Y90.071 E0.06861
G1 X164.016 Y90.071 E0.01677
G1 X165.950 Y92.005 E0.08590
G1 X165.845 Y92.330 E0.01074
G1 X165.835 Y92.423 E0.00294
G1 X163.482 Y90.071 E0.10449
