; generated by PrusaSlicer 2.3.1+x64 on 2021-06-23 at 16:08:31 UTC

; 

; external perimeters extrusion width = 0.60mm
; perimeters extrusion width = 0.50mm
; infill extrusion width = 0.50mm
; solid infill extrusion width = 0.50mm
; top infill extrusion width = 0.45mm
; first layer extrusion width = 0.42mm

M73 P0 R23
M73 Q0 S24
M201 X1000 Y1000 Z200 E5000 ; sets maximum accelerations, mm/sec^2
M203 X200 Y200 Z12 E120 ; sets maximum feedrates, mm/sec
M204 P1250 R1250 T1250 ; sets acceleration (P, T) and retract acceleration (R), mm/sec^2
M205 X8.00 Y8.00 Z0.40 E4.50 ; sets the jerk limits, mm/sec
M205 S0 T0 ; sets the minimum extruding and travel feed rate, mm/sec
M107
;TYPE:Custom
M862.3 P "MK3S" ; printer model check
M862.1 P0.4 ; nozzle diameter check
M115 U3.9.3 ; tell printer latest fw version
G90 ; use absolute coordinates
M83 ; extruder relative mode
M104 S215 ; set extruder temp
M140 S60 ; set bed temp
M190 S60 ; wait for bed temp
M109 S215 ; wait for extruder temp
G28 W ; home all without mesh bed level
G80 ; mesh bed leveling
G1 Y-3.0 F1000.0 ; go outside print area
G92 E0.0
G1 X60.0 E9.0 F1000.0 ; intro line
M73 Q0 S23
G1 X100.0 E12.5 F1000.0 ; intro line
G92 E0.0
M221 S95

; Don't change E values below. Excessive value can damage the printer.

M907 E538 ; set extruder motor current
G21 ; set units to millimeters
G90 ; use absolute coordinates
M83 ; use relative distances for extrusion
M900 K0.05 ; Filament gcode LA 1.5
M900 K30 ; Filament gcode LA 1.0
;LAYER_CHANGE
;Z:0.2
;HEIGHT:0.2
;BEFORE_LAYER_CHANGE
G92 E0.0
;0.2


G1 E-0.80000 F2100.000
G1 Z0.400 F10800.000
;AFTER_LAYER_CHANGE
;0.2
G1 X104.172 Y66.772
G1 Z0.200
G1 E0.80000 F2100.000
M204 S1000
;TYPE:Skirt
;WIDTH:0.42
G1 F1200.000
G1 X104.980 Y66.623 E0.02579
G1 X169.004 Y66.623 E2.00741
G1 X169.871 Y66.788 E0.02767
G1 X170.617 Y67.258 E0.02767
G1 X171.141 Y67.968 E0.02767
G1 X171.370 Y68.820 E0.02767
G1 X171.375 Y85.110 E0.51077
G1 X171.301 Y85.595 E0.01538
G1 X171.132 Y86.052 E0.01526
G1 X170.536 Y86.815 E0.03036
G1 X98.237 Y143.030 E2.87149
M73 P1 R23
M73 Q1 S23
G1 X97.667 Y143.282 E0.01953
G1 X97.048 Y143.377 E0.01965
G1 X80.939 Y143.376 E0.50508
G1 X80.445 Y143.311 E0.01562
G1 X79.972 Y143.143 E0.01574
G1 X79.545 Y142.880 E0.01574
G1 X79.185 Y142.536 E0.01562
G1 X78.772 Y141.829 E0.02567
G1 X78.623 Y141.020 E0.02579
G1 X78.623 Y92.996 E1.50576
G1 X78.738 Y92.269 E0.02308
G1 X78.969 Y91.765 E0.01740
G1 X79.308 Y91.330 E0.01728
G1 X103.465 Y67.185 E1.07090
G1 X104.120 Y66.802 E0.02379
; printing object RightTrack_BottomGR.stl id:0 copy 0
;WIPE_START
G1 F8640.000
G1 X104.980 Y66.623 E-0.20298
G1 X107.393 Y66.623 E-0.55702
;WIPE_END
G1 E-0.04000 F2100.000
G1 Z0.600 F10800.000
G1 X122.620 Y79.271
G1 Z0.200
G1 E0.80000 F2100.000
;TYPE:Perimeter
G1 F1200.000
G1 X123.032 Y78.814 E0.01928
G1 X123.529 Y78.453 E0.01928
G1 X124.091 Y78.203 E0.01928
G1 X124.693 Y78.075 E0.01928
G1 X125.307 Y78.075 E0.01928
G1 X125.909 Y78.203 E0.01928
G1 X126.471 Y78.453 E0.01928
G1 X126.968 Y78.814 E0.01928
G1 X127.380 Y79.271 E0.01928
G1 X127.687 Y79.804 E0.01928
G1 X127.877 Y80.388 E0.01928
G1 X127.941 Y81.000 E0.01928
G1 X127.877 Y81.612 E0.01928
G1 X127.686 Y82.200 E0.01940
G1 X127.356 Y82.756 E0.02027
G1 X126.968 Y83.186 E0.01815
G1 X126.471 Y83.547 E0.01928
G1 X125.909 Y83.797 E0.01928
G1 X125.307 Y83.925 E0.01928
G1 X124.693 Y83.925 E0.01928
G1 X124.091 Y83.797 E0.01928
G1 X123.529 Y83.547 E0.01928
G1 X123.032 Y83.186 E0.01928
G1 X122.620 Y82.729 E0.01928
G1 X122.313 Y82.196 E0.01928
G1 X122.123 Y81.612 E0.01928
G1 X122.059 Y81.000 E0.01928
G1 X122.123 Y80.388 E0.01928
G1 X122.313 Y79.804 E0.01928
G1 X122.590 Y79.323 E0.01740
G1 X122.917 Y79.512 F10800.000
;TYPE:External perimeter
G1 F1200.000
G1 X123.286 Y79.096 E0.01742
G1 X123.719 Y78.781 E0.01680
G1 X124.208 Y78.563 E0.01680
G1 X124.732 Y78.452 E0.01680
G1 X125.268 Y78.452 E0.01680
G1 X125.792 Y78.563 E0.01680
G1 X126.281 Y78.781 E0.01680
G1 X126.714 Y79.096 E0.01680
G1 X127.073 Y79.494 E0.01680
G1 X127.341 Y79.958 E0.01680
G1 X127.506 Y80.467 E0.01680
G1 X127.562 Y81.000 E0.01680
G1 X127.506 Y81.533 E0.01680
G1 X127.340 Y82.043 E0.01684
G1 X127.050 Y82.531 E0.01779
G1 X126.714 Y82.904 E0.01574
G1 X126.281 Y83.219 E0.01680
G1 X125.792 Y83.437 E0.01680
G1 X125.268 Y83.548 E0.01680
G1 X124.732 Y83.548 E0.01679
G1 X124.208 Y83.437 E0.01680
G1 X123.719 Y83.219 E0.01680
G1 X123.286 Y82.904 E0.01680
G1 X122.927 Y82.506 E0.01680
G1 X122.659 Y82.042 E0.01680
G1 X122.494 Y81.533 E0.01680
G1 X122.438 Y81.000 E0.01680
G1 X122.494 Y80.467 E0.01680
G1 X122.659 Y79.958 E0.01680
G1 X122.887 Y79.564 E0.01428
G1 X122.752 Y79.147 F10800.000
;WIPE_START
G1 F8640.000
G1 X123.286 Y79.096 E-0.14189
G1 X123.719 Y78.781 E-0.12368
G1 X124.208 Y78.563 E-0.12369
G1 X124.732 Y78.452 E-0.12369
G1 X125.268 Y78.452 E-0.12368
G1 X125.790 Y78.563 E-0.12337
;WIPE_END
G1 E-0.04000 F2100.000
G1 Z0.600 F10800.000
G1 X111.941 Y81.000
G1 Z0.200
G1 E0.80000 F2100.000
;TYPE:Perimeter
G1 F1200.000
G1 X111.877 Y81.612 E0.01928
G1 X111.687 Y82.196 E0.01928
G1 X111.380 Y82.729 E0.01928
G1 X110.968 Y83.186 E0.01928
G1 X110.471 Y83.547 E0.01928
G1 X109.942 Y83.783 E0.01815
G1 X109.311 Y83.925 E0.02027
G1 X108.693 Y83.925 E0.01940
G1 X108.091 Y83.797 E0.01928
G1 X107.529 Y83.547 E0.01928
G1 X107.032 Y83.186 E0.01928
G1 X106.620 Y82.729 E0.01928
G1 X106.313 Y82.196 E0.01928
G1 X106.123 Y81.612 E0.01928
G1 X106.059 Y81.000 E0.01928
G1 X106.123 Y80.388 E0.01928
G1 X106.313 Y79.804 E0.01928
G1 X106.620 Y79.271 E0.01928
G1 X107.032 Y78.814 E0.01928
G1 X107.529 Y78.453 E0.01928
G1 X108.058 Y78.217 E0.01815
G1 X108.689 Y78.075 E0.02027
G1 X109.307 Y78.075 E0.01940
G1 X109.909 Y78.203 E0.01928
G1 X110.471 Y78.453 E0.01928
G1 X110.968 Y78.814 E0.01928
G1 X111.380 Y79.271 E0.01928
G1 X111.687 Y79.804 E0.01928
G1 X111.877 Y80.388 E0.01928
G1 X111.935 Y80.940 E0.01740
G1 X111.560 Y80.980 F10800.000
;TYPE:External perimeter
G1 F1200.000
G1 X111.506 Y81.533 E0.01742
G1 X111.341 Y82.042 E0.01680
G1 X111.073 Y82.506 E0.01680
G1 X110.714 Y82.904 E0.01680
G1 X110.281 Y83.219 E0.01679
G1 X109.822 Y83.423 E0.01574
G1 X109.269 Y83.548 E0.01779
G1 X108.732 Y83.548 E0.01684
G1 X108.208 Y83.437 E0.01680
G1 X107.719 Y83.219 E0.01680
G1 X107.286 Y82.904 E0.01680
G1 X106.927 Y82.506 E0.01680
G1 X106.659 Y82.042 E0.01680
G1 X106.494 Y81.533 E0.01680
G1 X106.438 Y81.000 E0.01680
G1 X106.494 Y80.467 E0.01680
G1 X106.659 Y79.958 E0.01680
G1 X106.927 Y79.494 E0.01680
G1 X107.286 Y79.096 E0.01680
G1 X107.719 Y78.781 E0.01680
G1 X108.178 Y78.577 E0.01574
G1 X108.731 Y78.452 E0.01779
G1 X109.268 Y78.452 E0.01684
G1 X109.792 Y78.563 E0.01680
G1 X110.281 Y78.781 E0.01680
G1 X110.714 Y79.096 E0.01680
G1 X111.073 Y79.494 E0.01680
G1 X111.341 Y79.958 E0.01680
G1 X111.506 Y80.467 E0.01680
G1 X111.554 Y80.920 E0.01428
G1 X111.908 Y81.178 F10800.000
;WIPE_START
G1 F8640.000
G1 X111.506 Y81.533 E-0.14189
G1 X111.341 Y82.042 E-0.12368
G1 X111.073 Y82.506 E-0.12369
G1 X110.714 Y82.904 E-0.12369
G1 X110.281 Y83.219 E-0.12368
G1 X109.822 Y83.423 E-0.11592
G1 X109.791 Y83.430 E-0.00745
;WIPE_END
G1 E-0.04000 F2100.000
G1 Z0.600 F10800.000
G1 X94.968 Y102.814
G1 Z0.200
G1 E0.80000 F2100.000
;TYPE:Perimeter
G1 F1200.000
G1 X95.380 Y103.271 E0.01928
G1 X95.687 Y103.804 E0.01928
G1 X95.877 Y104.388 E0.01928
G1 X95.941 Y105.000 E0.01928
G1 X95.877 Y105.612 E0.01928
G1 X95.687 Y106.196 E0.01928
G1 X95.380 Y106.729 E0.01928
G1 X94.968 Y107.186 E0.01928
G1 X94.471 Y107.547 E0.01928
G1 X93.909 Y107.797 E0.01928
G1 X93.307 Y107.925 E0.01928
G1 X92.693 Y107.925 E0.01928
G1 X92.126 Y107.805 E0.01815
G1 X91.532 Y107.550 E0.02027
G1 X91.032 Y107.186 E0.01940
G1 X90.620 Y106.729 E0.01928
G1 X90.313 Y106.196 E0.01928
G1 X90.123 Y105.612 E0.01928
G1 X90.059 Y105.000 E0.01928
G1 X90.123 Y104.388 E0.01928
G1 X90.313 Y103.804 E0.01928
G1 X90.620 Y103.271 E0.01928
G1 X91.032 Y102.814 E0.01928
G1 X91.529 Y102.453 E0.01928
G1 X92.091 Y102.203 E0.01928
G1 X92.693 Y102.075 E0.01928
G1 X93.307 Y102.075 E0.01928
G1 X93.909 Y102.203 E0.01928
G1 X94.471 Y102.453 E0.01928
G1 X94.920 Y102.779 E0.01740
G1 X94.698 Y103.084 F10800.000
;TYPE:External perimeter
G1 F1200.000
G1 X95.073 Y103.494 E0.01742
G1 X95.341 Y103.958 E0.01680
G1 X95.506 Y104.467 E0.01680
G1 X95.562 Y105.000 E0.01680
G1 X95.506 Y105.533 E0.01680
G1 X95.341 Y106.042 E0.01680
G1 X95.073 Y106.506 E0.01680
G1 X94.714 Y106.904 E0.01680
G1 X94.281 Y107.219 E0.01680
G1 X93.792 Y107.437 E0.01680
G1 X93.268 Y107.548 E0.01680
G1 X92.732 Y107.548 E0.01680
G1 X92.241 Y107.444 E0.01574
G1 X91.720 Y107.220 E0.01779
G1 X91.286 Y106.904 E0.01684
G1 X90.927 Y106.506 E0.01680
G1 X90.659 Y106.042 E0.01680
G1 X90.494 Y105.533 E0.01680
G1 X90.438 Y105.000 E0.01680
G1 X90.494 Y104.467 E0.01680
G1 X90.659 Y103.958 E0.01680
M73 Q2 S23
G1 X90.927 Y103.494 E0.01680
G1 X91.286 Y103.096 E0.01680
G1 X91.719 Y102.781 E0.01680
G1 X92.208 Y102.563 E0.01680
M73 P2 R23
G1 X92.732 Y102.452 E0.01680
G1 X93.268 Y102.452 E0.01680
G1 X93.792 Y102.563 E0.01680
G1 X94.281 Y102.781 E0.01680
G1 X94.649 Y103.049 E0.01428
G1 X95.078 Y102.958 F10800.000
;WIPE_START
G1 F8640.000
G1 X95.073 Y103.494 E-0.14189
G1 X95.341 Y103.958 E-0.12369
G1 X95.506 Y104.467 E-0.12368
G1 X95.562 Y105.000 E-0.12369
G1 X95.506 Y105.533 E-0.12369
G1 X95.341 Y106.041 E-0.12337
;WIPE_END
G1 E-0.04000 F2100.000
G1 Z0.600 F10800.000
G1 X93.307 Y110.075
G1 Z0.200
G1 E0.80000 F2100.000
;TYPE:Perimeter
G1 F1200.000
G1 X93.909 Y110.203 E0.01928
G1 X94.471 Y110.453 E0.01928
G1 X94.968 Y110.814 E0.01928
G1 X95.380 Y111.271 E0.01928
G1 X95.687 Y111.804 E0.01928
G1 X95.877 Y112.388 E0.01928
G1 X95.941 Y113.000 E0.01928
G1 X95.877 Y113.612 E0.01928
G1 X95.687 Y114.196 E0.01928
G1 X95.380 Y114.729 E0.01928
G1 X94.968 Y115.186 E0.01928
G1 X94.471 Y115.547 E0.01928
G1 X93.909 Y115.797 E0.01928
G1 X93.307 Y115.925 E0.01928
G1 X92.693 Y115.925 E0.01928
G1 X92.091 Y115.797 E0.01928
G1 X91.529 Y115.547 E0.01928
G1 X91.032 Y115.186 E0.01928
G1 X90.620 Y114.729 E0.01928
G1 X90.313 Y114.196 E0.01928
G1 X90.123 Y113.612 E0.01928
G1 X90.059 Y113.000 E0.01928
G1 X90.123 Y112.388 E0.01928
G1 X90.313 Y111.804 E0.01928
G1 X90.620 Y111.271 E0.01928
G1 X91.032 Y110.814 E0.01928
G1 X91.529 Y110.453 E0.01928
G1 X92.091 Y110.203 E0.01928
G1 X92.693 Y110.075 E0.01928
G1 X93.247 Y110.075 E0.01740
G1 X93.247 Y110.452 F10800.000
;TYPE:External perimeter
G1 F1200.000
G1 X93.792 Y110.563 E0.01742
G1 X94.281 Y110.781 E0.01680
G1 X94.714 Y111.096 E0.01680
G1 X95.073 Y111.494 E0.01680
G1 X95.341 Y111.958 E0.01680
G1 X95.506 Y112.467 E0.01680
G1 X95.562 Y113.000 E0.01680
G1 X95.506 Y113.533 E0.01680
G1 X95.341 Y114.042 E0.01680
G1 X95.073 Y114.506 E0.01680
G1 X94.714 Y114.904 E0.01680
G1 X94.281 Y115.219 E0.01680
G1 X93.792 Y115.437 E0.01680
G1 X93.268 Y115.548 E0.01680
G1 X92.732 Y115.548 E0.01680
G1 X92.208 Y115.437 E0.01680
G1 X91.719 Y115.219 E0.01680
G1 X91.286 Y114.904 E0.01680
G1 X90.927 Y114.506 E0.01680
G1 X90.659 Y114.042 E0.01680
G1 X90.494 Y113.533 E0.01680
G1 X90.438 Y113.000 E0.01680
G1 X90.494 Y112.467 E0.01680
G1 X90.659 Y111.958 E0.01680
G1 X90.927 Y111.494 E0.01680
G1 X91.286 Y111.096 E0.01680
G1 X91.719 Y110.781 E0.01680
G1 X92.208 Y110.563 E0.01680
G1 X92.732 Y110.452 E0.01680
G1 X93.187 Y110.452 E0.01428
G1 X93.481 Y110.127 F10800.000
;WIPE_START
G1 F8640.000
G1 X93.792 Y110.563 E-0.14189
G1 X94.281 Y110.781 E-0.12369
G1 X94.714 Y111.096 E-0.12368
G1 X95.073 Y111.494 E-0.12369
G1 X95.341 Y111.958 E-0.12368
G1 X95.506 Y112.466 E-0.12337
;WIPE_END
G1 E-0.04000 F2100.000
G1 Z0.600 F10800.000
G1 X93.307 Y126.075
G1 Z0.200
G1 E0.80000 F2100.000
;TYPE:Perimeter
G1 F1200.000
G1 X93.909 Y126.203 E0.01928
G1 X94.471 Y126.453 E0.01928
G1 X94.968 Y126.814 E0.01928
G1 X95.380 Y127.271 E0.01928
G1 X95.687 Y127.804 E0.01928
G1 X95.877 Y128.388 E0.01928
G1 X95.941 Y129.000 E0.01928
G1 X95.877 Y129.612 E0.01928
G1 X95.687 Y130.196 E0.01928
G1 X95.380 Y130.729 E0.01928
G1 X94.968 Y131.186 E0.01928
G1 X94.471 Y131.547 E0.01928
G1 X93.909 Y131.797 E0.01928
G1 X93.307 Y131.925 E0.01928
G1 X92.693 Y131.925 E0.01928
G1 X92.091 Y131.797 E0.01928
G1 X91.529 Y131.547 E0.01928
G1 X91.061 Y131.207 E0.01815
G1 X90.622 Y130.732 E0.02027
G1 X90.313 Y130.196 E0.01940
G1 X90.123 Y129.612 E0.01928
G1 X90.059 Y129.000 E0.01928
G1 X90.123 Y128.388 E0.01928
G1 X90.313 Y127.804 E0.01928
G1 X90.620 Y127.271 E0.01928
G1 X91.032 Y126.814 E0.01928
G1 X91.529 Y126.453 E0.01928
G1 X92.091 Y126.203 E0.01928
G1 X92.693 Y126.075 E0.01928
G1 X93.247 Y126.075 E0.01740
G1 X93.247 Y126.452 F10800.000
;TYPE:External perimeter
G1 F1200.000
G1 X93.792 Y126.563 E0.01742
G1 X94.281 Y126.781 E0.01680
G1 X94.714 Y127.096 E0.01680
G1 X95.073 Y127.494 E0.01680
G1 X95.341 Y127.958 E0.01680
G1 X95.506 Y128.467 E0.01680
G1 X95.562 Y129.000 E0.01680
G1 X95.506 Y129.533 E0.01680
G1 X95.341 Y130.042 E0.01680
G1 X95.073 Y130.506 E0.01680
G1 X94.714 Y130.904 E0.01680
G1 X94.281 Y131.219 E0.01680
G1 X93.792 Y131.437 E0.01680
G1 X93.268 Y131.548 E0.01680
G1 X92.732 Y131.548 E0.01680
G1 X92.208 Y131.437 E0.01680
G1 X91.719 Y131.219 E0.01680
G1 X91.313 Y130.924 E0.01574
G1 X90.928 Y130.507 E0.01779
G1 X90.659 Y130.042 E0.01684
G1 X90.494 Y129.533 E0.01680
G1 X90.438 Y129.000 E0.01680
G1 X90.494 Y128.467 E0.01680
G1 X90.659 Y127.958 E0.01680
G1 X90.927 Y127.494 E0.01680
G1 X91.286 Y127.096 E0.01680
G1 X91.719 Y126.781 E0.01680
G1 X92.208 Y126.563 E0.01680
G1 X92.732 Y126.452 E0.01680
G1 X93.187 Y126.452 E0.01428
G1 X93.481 Y126.127 F10800.000
;WIPE_START
G1 F8640.000
G1 X93.792 Y126.563 E-0.14189
G1 X94.281 Y126.781 E-0.12369
G1 X94.714 Y127.096 E-0.12368
G1 X95.073 Y127.494 E-0.12369
G1 X95.341 Y127.958 E-0.12369
G1 X95.506 Y128.466 E-0.12337
;WIPE_END
G1 E-0.04000 F2100.000
G1 Z0.600 F10800.000
G1 X154.620 Y82.729
G1 Z0.200
G1 E0.80000 F2100.000
;TYPE:Perimeter
G1 F1200.000
G1 X154.311 Y82.193 E0.01940
G1 X154.119 Y81.576 E0.02027
G1 X154.059 Y81.000 E0.01815
G1 X154.123 Y80.388 E0.01928
G1 X154.313 Y79.804 E0.01928
G1 X154.620 Y79.271 E0.01928
G1 X155.032 Y78.814 E0.01928
G1 X155.529 Y78.453 E0.01928
G1 X156.091 Y78.203 E0.01928
G1 X156.693 Y78.075 E0.01928
G1 X157.307 Y78.075 E0.01928
G1 X157.909 Y78.203 E0.01928
G1 X158.471 Y78.453 E0.01928
G1 X158.968 Y78.814 E0.01928
G1 X159.380 Y79.271 E0.01928
G1 X159.689 Y79.807 E0.01940
G1 X159.881 Y80.424 E0.02027
G1 X159.941 Y81.000 E0.01815
G1 X159.877 Y81.612 E0.01928
G1 X159.687 Y82.196 E0.01928
G1 X159.380 Y82.729 E0.01928
G1 X158.968 Y83.186 E0.01928
G1 X158.471 Y83.547 E0.01928
G1 X157.909 Y83.797 E0.01928
G1 X157.307 Y83.925 E0.01928
G1 X156.693 Y83.925 E0.01928
G1 X156.091 Y83.797 E0.01928
G1 X155.529 Y83.547 E0.01928
G1 X155.032 Y83.186 E0.01928
G1 X154.660 Y82.774 E0.01740
G1 X154.941 Y82.521 F10800.000
;TYPE:External perimeter
G1 F1200.000
G1 X154.659 Y82.041 E0.01746
G1 X154.490 Y81.499 E0.01779
G1 X154.438 Y81.000 E0.01574
G1 X154.494 Y80.467 E0.01680
G1 X154.659 Y79.958 E0.01680
G1 X154.927 Y79.494 E0.01680
G1 X155.286 Y79.096 E0.01680
G1 X155.719 Y78.781 E0.01680
G1 X156.208 Y78.563 E0.01680
G1 X156.732 Y78.452 E0.01679
G1 X157.268 Y78.452 E0.01680
G1 X157.792 Y78.563 E0.01680
G1 X158.281 Y78.781 E0.01680
G1 X158.714 Y79.096 E0.01680
G1 X159.073 Y79.494 E0.01680
G1 X159.341 Y79.959 E0.01684
G1 X159.510 Y80.501 E0.01779
G1 X159.562 Y81.000 E0.01574
G1 X159.506 Y81.533 E0.01680
G1 X159.341 Y82.042 E0.01680
G1 X159.073 Y82.506 E0.01680
G1 X158.714 Y82.904 E0.01680
G1 X158.281 Y83.219 E0.01680
G1 X157.792 Y83.437 E0.01680
G1 X157.268 Y83.548 E0.01680
G1 X156.732 Y83.548 E0.01680
G1 X156.208 Y83.437 E0.01679
G1 X155.719 Y83.219 E0.01680
G1 X155.286 Y82.904 E0.01680
G1 X154.981 Y82.566 E0.01428
G1 X154.543 Y82.565 F10800.000
;WIPE_START
G1 F8640.000
G1 X154.659 Y82.041 E-0.14220
G1 X154.490 Y81.499 E-0.13098
G1 X154.438 Y81.000 E-0.11592
G1 X154.494 Y80.467 E-0.12368
G1 X154.659 Y79.958 E-0.12369
G1 X154.927 Y79.495 E-0.12352
;WIPE_END
G1 E-0.04000 F2100.000
G1 Z0.600 F10800.000
G1 X111.303 Y84.213
G1 Z0.200
G1 E0.80000 F2100.000
;TYPE:Perimeter
G1 F1200.000
G1 X96.213 Y99.303 E0.66910
G1 X96.213 Y140.213 E1.28272
G1 X81.787 Y140.213 E0.45231
