; generated by PrusaSlicer 2.3.1+x64 on 2021-06-22 at 17:15:38 UTC

; 

; external perimeters extrusion width = 0.60mm
; perimeters extrusion width = 0.50mm
; infill extrusion width = 0.50mm
; solid infill extrusion width = 0.50mm
; top infill extrusion width = 0.45mm
; first layer extrusion width = 0.42mm

M73 P0 R25
M73 Q0 S25
M201 X1000 Y1000 Z200 E5000 ; sets maximum accelerations, mm/sec^2
M203 X200 Y200 Z12 E120 ; sets maximum feedrates, mm/sec
M204 P1250 R1250 T1250 ; sets acceleration (P, T) and retract acceleration (R), mm/sec^2
M205 X8.00 Y8.00 Z0.40 E4.50 ; sets the jerk limits, mm/sec
M205 S0 T0 ; sets the minimum extruding and travel feed rate, mm/sec
M107
;TYPE:Custom
M862.3 P "MK3S" ; printer model check
M862.1 P0.4 ; nozzle diameter check
M115 U3.9.3 ; tell printer latest fw version
G90 ; use absolute coordinates
M83 ; extruder relative mode
M104 S215 ; set extruder temp
M140 S60 ; set bed temp
M190 S60 ; wait for bed temp
M109 S215 ; wait for extruder temp
G28 W ; home all without mesh bed level
G80 ; mesh bed leveling
G1 Y-3.0 F1000.0 ; go outside print area
G92 E0.0
G1 X60.0 E9.0 F1000.0 ; intro line
G1 X100.0 E12.5 F1000.0 ; intro line
G92 E0.0
M221 S95

; Don't change E values below. Excessive value can damage the printer.

M907 E538 ; set extruder motor current
G21 ; set units to millimeters
G90 ; use absolute coordinates
M83 ; use relative distances for extrusion
M900 K0.05 ; Filament gcode LA 1.5
M900 K30 ; Filament gcode LA 1.0
;LAYER_CHANGE
;Z:0.2
;HEIGHT:0.2
;BEFORE_LAYER_CHANGE
G92 E0.0
;0.2


G1 E-0.80000 F2100.000
G1 Z0.400 F10800.000
;AFTER_LAYER_CHANGE
;0.2
G1 X84.025 Y78.832
G1 Z0.200
G1 E0.80000 F2100.000
M204 S1000
;TYPE:Skirt
;WIDTH:0.42
G1 F1200.000
G1 X84.502 Y78.675 E0.01574
G1 X84.997 Y78.622 E0.01562
G1 X181.000 Y78.624 E3.01009
G1 X181.881 Y78.793 E0.02813
G1 X182.640 Y79.280 E0.02825
G1 X183.162 Y80.014 E0.02825
G1 X183.374 Y80.889 E0.02825
G1 X183.370 Y97.184 E0.51089
G1 X183.237 Y97.804 E0.01989
G1 X182.946 Y98.367 E0.01989
G1 X182.515 Y98.833 E0.01989
G1 X181.977 Y99.168 E0.01989
G1 X85.613 Y131.297 E3.18493
M73 P1 R24
M73 Q1 S25
G1 X85.011 Y131.378 E0.01906
G1 X68.833 Y131.372 E0.50725
G1 X68.208 Y131.242 E0.02000
G1 X67.640 Y130.951 E0.02000
G1 X67.171 Y130.519 E0.02000
G1 X66.833 Y129.978 E0.02000
G1 X66.677 Y129.505 E0.01562
G1 X66.623 Y129.006 E0.01574
G1 X66.623 Y96.993 E1.00373
G1 X66.746 Y96.245 E0.02378
G1 X66.977 Y95.753 E0.01704
G1 X67.313 Y95.326 E0.01704
G1 X83.332 Y79.307 E0.71028
G1 X83.976 Y78.866 E0.02449
; printing object TopTrack_GR.stl id:0 copy 0
;WIPE_START
G1 F8640.000
G1 X84.502 Y78.675 E-0.12924
G1 X84.997 Y78.622 E-0.11500
G1 X87.231 Y78.622 E-0.51576
;WIPE_END
G1 E-0.04000 F2100.000
G1 Z0.600 F10800.000
G1 X110.123 Y84.389
G1 Z0.200
G1 E0.80000 F2100.000
;TYPE:Perimeter
G1 F1200.000
G1 X110.313 Y83.805 E0.01928
G1 X110.620 Y83.272 E0.01928
G1 X111.032 Y82.815 E0.01928
G1 X111.529 Y82.454 E0.01928
G1 X112.091 Y82.203 E0.01928
G1 X112.693 Y82.076 E0.01928
G1 X113.307 Y82.076 E0.01928
G1 X113.909 Y82.203 E0.01928
G1 X114.471 Y82.454 E0.01928
G1 X114.968 Y82.815 E0.01928
G1 X115.380 Y83.272 E0.01928
G1 X115.687 Y83.805 E0.01928
G1 X115.877 Y84.389 E0.01928
G1 X115.941 Y85.001 E0.01928
G1 X115.877 Y85.612 E0.01928
G1 X115.686 Y86.201 E0.01940
G1 X115.356 Y86.757 E0.02027
G1 X114.968 Y87.187 E0.01815
G1 X114.471 Y87.548 E0.01928
G1 X113.909 Y87.798 E0.01928
G1 X113.307 Y87.926 E0.01928
G1 X112.693 Y87.926 E0.01928
G1 X112.091 Y87.798 E0.01928
G1 X111.529 Y87.548 E0.01928
G1 X111.032 Y87.187 E0.01928
G1 X110.620 Y86.730 E0.01928
G1 X110.311 Y86.194 E0.01940
G1 X110.119 Y85.577 E0.02027
G1 X110.059 Y85.001 E0.01815
G1 X110.117 Y84.449 E0.01740
G1 X110.492 Y84.488 F10800.000
;TYPE:External perimeter
G1 F1200.000
G1 X110.659 Y83.959 E0.01742
G1 X110.927 Y83.495 E0.01680
G1 X111.286 Y83.097 E0.01680
G1 X111.719 Y82.782 E0.01680
G1 X112.208 Y82.564 E0.01680
G1 X112.732 Y82.453 E0.01680
G1 X113.268 Y82.453 E0.01680
G1 X113.792 Y82.564 E0.01680
G1 X114.281 Y82.782 E0.01680
G1 X114.715 Y83.097 E0.01680
G1 X115.073 Y83.495 E0.01680
G1 X115.341 Y83.959 E0.01680
G1 X115.506 Y84.468 E0.01680
G1 X115.562 Y85.001 E0.01680
G1 X115.506 Y85.534 E0.01680
G1 X115.340 Y86.044 E0.01684
G1 X115.050 Y86.532 E0.01779
G1 X114.715 Y86.905 E0.01574
G1 X114.281 Y87.220 E0.01680
G1 X113.792 Y87.438 E0.01680
G1 X113.268 Y87.549 E0.01680
G1 X112.732 Y87.549 E0.01680
G1 X112.208 Y87.438 E0.01680
G1 X111.719 Y87.220 E0.01680
G1 X111.286 Y86.905 E0.01680
G1 X110.927 Y86.507 E0.01680
G1 X110.659 Y86.042 E0.01684
G1 X110.490 Y85.500 E0.01779
G1 X110.438 Y85.001 E0.01574
G1 X110.485 Y84.548 E0.01428
G1 X110.193 Y84.222 F10800.000
;WIPE_START
G1 F8640.000
G1 X110.659 Y83.959 E-0.14189
G1 X110.927 Y83.495 E-0.12369
G1 X111.286 Y83.097 E-0.12369
G1 X111.719 Y82.782 E-0.12368
G1 X112.208 Y82.564 E-0.12368
G1 X112.731 Y82.453 E-0.12337
;WIPE_END
G1 E-0.04000 F2100.000
G1 Z0.600 F10800.000
G1 X107.941 Y85.001
G1 Z0.200
G1 E0.80000 F2100.000
;TYPE:Perimeter
G1 F1200.000
G1 X107.877 Y85.612 E0.01928
G1 X107.686 Y86.201 E0.01940
G1 X107.356 Y86.757 E0.02027
G1 X106.968 Y87.187 E0.01815
G1 X106.471 Y87.548 E0.01928
G1 X105.909 Y87.798 E0.01928
G1 X105.307 Y87.926 E0.01928
G1 X104.693 Y87.926 E0.01928
G1 X104.091 Y87.798 E0.01928
G1 X103.529 Y87.548 E0.01928
G1 X103.032 Y87.187 E0.01928
G1 X102.620 Y86.730 E0.01928
G1 X102.313 Y86.197 E0.01928
G1 X102.123 Y85.612 E0.01928
G1 X102.059 Y85.001 E0.01928
G1 X102.123 Y84.389 E0.01928
G1 X102.313 Y83.805 E0.01928
G1 X102.620 Y83.272 E0.01928
G1 X103.032 Y82.815 E0.01928
G1 X103.529 Y82.454 E0.01928
G1 X104.091 Y82.203 E0.01928
G1 X104.693 Y82.076 E0.01928
G1 X105.307 Y82.076 E0.01928
G1 X105.909 Y82.203 E0.01928
G1 X106.471 Y82.454 E0.01928
G1 X106.968 Y82.815 E0.01928
G1 X107.380 Y83.272 E0.01928
G1 X107.687 Y83.805 E0.01928
G1 X107.877 Y84.389 E0.01928
G1 X107.935 Y84.941 E0.01740
G1 X107.560 Y84.981 F10800.000
;TYPE:External perimeter
G1 F1200.000
G1 X107.506 Y85.534 E0.01742
G1 X107.340 Y86.044 E0.01684
G1 X107.050 Y86.532 E0.01779
G1 X106.715 Y86.905 E0.01574
G1 X106.281 Y87.220 E0.01680
G1 X105.792 Y87.438 E0.01680
G1 X105.268 Y87.549 E0.01680
G1 X104.732 Y87.549 E0.01680
G1 X104.208 Y87.438 E0.01680
G1 X103.719 Y87.220 E0.01680
G1 X103.286 Y86.905 E0.01680
G1 X102.927 Y86.507 E0.01680
G1 X102.659 Y86.043 E0.01680
G1 X102.494 Y85.534 E0.01680
G1 X102.438 Y85.001 E0.01680
G1 X102.494 Y84.468 E0.01680
G1 X102.659 Y83.959 E0.01680
G1 X102.927 Y83.495 E0.01680
G1 X103.286 Y83.097 E0.01680
G1 X103.719 Y82.782 E0.01680
G1 X104.208 Y82.564 E0.01680
G1 X104.732 Y82.453 E0.01680
G1 X105.268 Y82.453 E0.01680
G1 X105.792 Y82.564 E0.01680
G1 X106.281 Y82.782 E0.01680
G1 X106.715 Y83.097 E0.01680
G1 X107.073 Y83.495 E0.01680
G1 X107.341 Y83.959 E0.01680
G1 X107.506 Y84.468 E0.01680
G1 X107.554 Y84.921 E0.01428
G1 X107.908 Y85.179 F10800.000
;WIPE_START
G1 F8640.000
G1 X107.506 Y85.534 E-0.14189
G1 X107.340 Y86.044 E-0.12400
G1 X107.050 Y86.532 E-0.13098
G1 X106.715 Y86.905 E-0.11592
G1 X106.281 Y87.220 E-0.12368
G1 X105.792 Y87.438 E-0.12352
;WIPE_END
G1 E-0.04000 F2100.000
G1 Z0.600 F10800.000
G1 X99.941 Y85.001
G1 Z0.200
G1 E0.80000 F2100.000
;TYPE:Perimeter
G1 F1200.000
G1 X99.877 Y85.612 E0.01928
G1 X99.687 Y86.197 E0.01928
G1 X99.380 Y86.730 E0.01928
G1 X98.968 Y87.187 E0.01928
G1 X98.471 Y87.548 E0.01928
G1 X97.909 Y87.798 E0.01928
G1 X97.307 Y87.926 E0.01928
G1 X96.693 Y87.926 E0.01928
G1 X96.091 Y87.798 E0.01928
G1 X95.529 Y87.548 E0.01928
G1 X95.032 Y87.187 E0.01928
G1 X94.620 Y86.730 E0.01928
G1 X94.311 Y86.194 E0.01940
G1 X94.119 Y85.577 E0.02027
G1 X94.059 Y85.001 E0.01815
G1 X94.123 Y84.389 E0.01928
G1 X94.313 Y83.805 E0.01928
G1 X94.620 Y83.272 E0.01928
G1 X95.032 Y82.815 E0.01928
G1 X95.529 Y82.454 E0.01928
G1 X96.091 Y82.203 E0.01928
G1 X96.693 Y82.076 E0.01928
G1 X97.307 Y82.076 E0.01928
G1 X97.909 Y82.203 E0.01928
G1 X98.471 Y82.454 E0.01928
G1 X98.968 Y82.815 E0.01928
G1 X99.380 Y83.272 E0.01928
G1 X99.687 Y83.805 E0.01928
G1 X99.877 Y84.389 E0.01928
G1 X99.935 Y84.941 E0.01740
G1 X99.560 Y84.981 F10800.000
;TYPE:External perimeter
G1 F1200.000
G1 X99.506 Y85.534 E0.01742
G1 X99.341 Y86.043 E0.01680
G1 X99.073 Y86.507 E0.01680
G1 X98.715 Y86.905 E0.01680
G1 X98.281 Y87.220 E0.01680
G1 X97.792 Y87.438 E0.01680
G1 X97.268 Y87.549 E0.01680
G1 X96.732 Y87.549 E0.01680
G1 X96.208 Y87.438 E0.01680
G1 X95.719 Y87.220 E0.01680
G1 X95.286 Y86.905 E0.01680
G1 X94.927 Y86.507 E0.01680
G1 X94.659 Y86.042 E0.01684
G1 X94.490 Y85.500 E0.01779
G1 X94.438 Y85.001 E0.01574
G1 X94.494 Y84.468 E0.01680
G1 X94.659 Y83.959 E0.01680
G1 X94.927 Y83.495 E0.01680
G1 X95.286 Y83.097 E0.01680
G1 X95.719 Y82.782 E0.01680
G1 X96.208 Y82.564 E0.01680
G1 X96.732 Y82.453 E0.01680
G1 X97.268 Y82.453 E0.01680
G1 X97.792 Y82.564 E0.01680
M73 Q1 S24
G1 X98.281 Y82.782 E0.01680
G1 X98.715 Y83.097 E0.01680
G1 X99.073 Y83.495 E0.01680
G1 X99.341 Y83.959 E0.01680
G1 X99.506 Y84.468 E0.01680
G1 X99.554 Y84.921 E0.01428
G1 X99.908 Y85.179 F10800.000
;WIPE_START
G1 F8640.000
G1 X99.506 Y85.534 E-0.14189
G1 X99.341 Y86.043 E-0.12368
G1 X99.073 Y86.507 E-0.12369
G1 X98.715 Y86.905 E-0.12368
G1 X98.281 Y87.220 E-0.12368
G1 X97.793 Y87.437 E-0.12337
;WIPE_END
G1 E-0.04000 F2100.000
G1 Z0.600 F10800.000
G1 X91.941 Y85.001
G1 Z0.200
G1 E0.80000 F2100.000
;TYPE:Perimeter
G1 F1200.000
G1 X91.877 Y85.612 E0.01928
G1 X91.687 Y86.197 E0.01928
G1 X91.380 Y86.730 E0.01928
G1 X90.968 Y87.187 E0.01928
G1 X90.471 Y87.548 E0.01928
G1 X89.909 Y87.798 E0.01928
G1 X89.307 Y87.926 E0.01928
G1 X88.693 Y87.926 E0.01928
G1 X88.091 Y87.798 E0.01928
G1 X87.529 Y87.548 E0.01928
G1 X87.032 Y87.187 E0.01928
G1 X86.620 Y86.730 E0.01928
M73 Q2 S24
G1 X86.313 Y86.197 E0.01928
G1 X86.123 Y85.612 E0.01928
M73 P2 R24
G1 X86.059 Y85.001 E0.01928
G1 X86.123 Y84.389 E0.01928
G1 X86.313 Y83.805 E0.01928
G1 X86.620 Y83.272 E0.01928
G1 X87.032 Y82.815 E0.01928
G1 X87.529 Y82.454 E0.01928
G1 X88.091 Y82.203 E0.01928
G1 X88.693 Y82.076 E0.01928
G1 X89.307 Y82.076 E0.01928
G1 X89.909 Y82.203 E0.01928
G1 X90.471 Y82.454 E0.01928
G1 X90.968 Y82.815 E0.01928
G1 X91.380 Y83.272 E0.01928
G1 X91.689 Y83.808 E0.01940
G1 X91.881 Y84.425 E0.02027
G1 X91.935 Y84.941 E0.01627
G1 X91.560 Y84.981 F10800.000
;TYPE:External perimeter
G1 F1200.000
G1 X91.506 Y85.534 E0.01742
G1 X91.341 Y86.043 E0.01680
G1 X91.073 Y86.507 E0.01680
G1 X90.715 Y86.905 E0.01680
G1 X90.281 Y87.220 E0.01680
G1 X89.792 Y87.438 E0.01680
G1 X89.268 Y87.549 E0.01680
G1 X88.732 Y87.549 E0.01680
G1 X88.208 Y87.438 E0.01680
G1 X87.719 Y87.220 E0.01680
G1 X87.286 Y86.905 E0.01680
G1 X86.927 Y86.507 E0.01680
G1 X86.659 Y86.043 E0.01680
G1 X86.494 Y85.534 E0.01680
G1 X86.438 Y85.001 E0.01680
G1 X86.494 Y84.468 E0.01680
G1 X86.659 Y83.959 E0.01679
G1 X86.927 Y83.495 E0.01680
G1 X87.286 Y83.097 E0.01680
G1 X87.719 Y82.782 E0.01680
G1 X88.208 Y82.564 E0.01680
G1 X88.732 Y82.453 E0.01680
G1 X89.268 Y82.453 E0.01680
G1 X89.792 Y82.564 E0.01680
G1 X90.281 Y82.782 E0.01680
G1 X90.715 Y83.097 E0.01680
G1 X91.073 Y83.495 E0.01680
G1 X91.341 Y83.960 E0.01684
G1 X91.510 Y84.502 E0.01779
G1 X91.554 Y84.921 E0.01322
G1 X91.908 Y85.179 F10800.000
;WIPE_START
G1 F8640.000
G1 X91.506 Y85.534 E-0.14189
G1 X91.341 Y86.043 E-0.12368
G1 X91.073 Y86.507 E-0.12368
G1 X90.715 Y86.905 E-0.12368
G1 X90.281 Y87.220 E-0.12368
G1 X89.793 Y87.437 E-0.12337
;WIPE_END
G1 E-0.04000 F2100.000
G1 Z0.600 F10800.000
G1 X74.471 Y114.454
G1 Z0.200
G1 E0.80000 F2100.000
;TYPE:Perimeter
G1 F1200.000
G1 X74.968 Y114.815 E0.01928
G1 X75.380 Y115.272 E0.01928
G1 X75.689 Y115.808 E0.01940
G1 X75.881 Y116.425 E0.02027
G1 X75.941 Y117.001 E0.01815
G1 X75.877 Y117.612 E0.01928
G1 X75.687 Y118.197 E0.01928
G1 X75.380 Y118.730 E0.01928
G1 X74.968 Y119.187 E0.01928
G1 X74.471 Y119.548 E0.01928
G1 X73.909 Y119.798 E0.01928
G1 X73.307 Y119.926 E0.01928
G1 X72.693 Y119.926 E0.01928
G1 X72.091 Y119.798 E0.01928
G1 X71.529 Y119.548 E0.01928
G1 X71.032 Y119.187 E0.01928
G1 X70.620 Y118.730 E0.01928
G1 X70.313 Y118.197 E0.01928
G1 X70.123 Y117.612 E0.01928
G1 X70.059 Y117.001 E0.01928
G1 X70.123 Y116.389 E0.01928
G1 X70.313 Y115.805 E0.01928
G1 X70.620 Y115.272 E0.01928
G1 X71.032 Y114.815 E0.01928
G1 X71.529 Y114.454 E0.01928
G1 X72.091 Y114.203 E0.01928
G1 X72.693 Y114.076 E0.01928
G1 X73.307 Y114.076 E0.01928
G1 X73.909 Y114.203 E0.01928
G1 X74.416 Y114.429 E0.01740
G1 X74.263 Y114.774 F10800.000
;TYPE:External perimeter
G1 F1200.000
G1 X74.715 Y115.097 E0.01742
G1 X75.073 Y115.495 E0.01680
G1 X75.341 Y115.960 E0.01684
G1 X75.510 Y116.502 E0.01779
G1 X75.562 Y117.001 E0.01574
G1 X75.506 Y117.534 E0.01680
G1 X75.341 Y118.043 E0.01680
G1 X75.073 Y118.507 E0.01680
G1 X74.715 Y118.905 E0.01680
G1 X74.281 Y119.220 E0.01680
G1 X73.792 Y119.438 E0.01680
G1 X73.268 Y119.549 E0.01680
G1 X72.732 Y119.549 E0.01680
G1 X72.208 Y119.438 E0.01680
G1 X71.719 Y119.220 E0.01680
G1 X71.286 Y118.905 E0.01680
G1 X70.927 Y118.507 E0.01680
G1 X70.659 Y118.043 E0.01680
G1 X70.494 Y117.534 E0.01680
G1 X70.438 Y117.001 E0.01680
G1 X70.494 Y116.468 E0.01680
G1 X70.659 Y115.959 E0.01680
G1 X70.927 Y115.495 E0.01680
G1 X71.286 Y115.097 E0.01680
G1 X71.719 Y114.782 E0.01680
G1 X72.208 Y114.564 E0.01680
G1 X72.732 Y114.453 E0.01680
G1 X73.268 Y114.453 E0.01679
G1 X73.792 Y114.564 E0.01680
G1 X74.208 Y114.749 E0.01428
G1 X74.608 Y114.572 F10800.000
;WIPE_START
G1 F8640.000
G1 X74.715 Y115.097 E-0.14189
G1 X75.073 Y115.495 E-0.12369
G1 X75.341 Y115.960 E-0.12400
G1 X75.510 Y116.502 E-0.13098
G1 X75.562 Y117.001 E-0.11592
G1 X75.506 Y117.533 E-0.12352
;WIPE_END
G1 E-0.04000 F2100.000
G1 Z0.600 F10800.000
G1 X73.307 Y122.076
G1 Z0.200
G1 E0.80000 F2100.000
;TYPE:Perimeter
G1 F1200.000
G1 X73.909 Y122.203 E0.01928
G1 X74.471 Y122.454 E0.01928
G1 X74.968 Y122.815 E0.01928
G1 X75.380 Y123.272 E0.01928
G1 X75.689 Y123.808 E0.01940
G1 X75.881 Y124.425 E0.02027
G1 X75.941 Y125.001 E0.01815
G1 X75.877 Y125.612 E0.01928
G1 X75.687 Y126.197 E0.01928
G1 X75.380 Y126.730 E0.01928
G1 X74.968 Y127.187 E0.01928
G1 X74.471 Y127.548 E0.01928
G1 X73.909 Y127.798 E0.01928
G1 X73.307 Y127.926 E0.01928
G1 X72.693 Y127.926 E0.01928
G1 X72.091 Y127.798 E0.01928
G1 X71.529 Y127.548 E0.01928
G1 X71.032 Y127.187 E0.01928
G1 X70.620 Y126.730 E0.01928
G1 X70.313 Y126.197 E0.01928
G1 X70.123 Y125.612 E0.01928
G1 X70.059 Y125.001 E0.01928
G1 X70.123 Y124.389 E0.01928
G1 X70.313 Y123.805 E0.01928
G1 X70.620 Y123.272 E0.01928
G1 X71.032 Y122.815 E0.01928
G1 X71.529 Y122.454 E0.01928
G1 X72.058 Y122.218 E0.01815
G1 X72.689 Y122.076 E0.02027
G1 X73.247 Y122.076 E0.01752
G1 X73.247 Y122.453 F10800.000
;TYPE:External perimeter
G1 F1200.000
G1 X73.792 Y122.564 E0.01742
G1 X74.281 Y122.782 E0.01680
G1 X74.715 Y123.097 E0.01680
G1 X75.073 Y123.495 E0.01680
G1 X75.341 Y123.960 E0.01684
G1 X75.510 Y124.502 E0.01779
G1 X75.562 Y125.001 E0.01574
G1 X75.506 Y125.534 E0.01680
G1 X75.341 Y126.043 E0.01680
G1 X75.073 Y126.507 E0.01680
G1 X74.715 Y126.905 E0.01680
G1 X74.281 Y127.220 E0.01680
G1 X73.792 Y127.438 E0.01680
G1 X73.268 Y127.549 E0.01680
G1 X72.732 Y127.549 E0.01680
G1 X72.208 Y127.438 E0.01680
G1 X71.719 Y127.220 E0.01680
G1 X71.286 Y126.905 E0.01680
G1 X70.927 Y126.507 E0.01680
G1 X70.659 Y126.043 E0.01680
G1 X70.494 Y125.534 E0.01680
G1 X70.438 Y125.001 E0.01680
G1 X70.494 Y124.468 E0.01680
G1 X70.659 Y123.959 E0.01680
G1 X70.927 Y123.495 E0.01680
G1 X71.286 Y123.097 E0.01680
G1 X71.719 Y122.782 E0.01680
G1 X72.178 Y122.578 E0.01574
G1 X72.731 Y122.453 E0.01779
G1 X73.187 Y122.453 E0.01432
G1 X73.480 Y122.127 F10800.000
;WIPE_START
G1 F8640.000
G1 X73.792 Y122.564 E-0.14189
G1 X74.281 Y122.782 E-0.12369
G1 X74.715 Y123.097 E-0.12368
G1 X75.073 Y123.495 E-0.12368
G1 X75.341 Y123.960 E-0.12400
G1 X75.500 Y124.469 E-0.12306
;WIPE_END
G1 E-0.04000 F2100.000
G1 Z0.600 F10800.000
G1 X166.313 Y86.197
G1 Z0.200
G1 E0.80000 F2100.000
;TYPE:Perimeter
G1 F1200.000
G1 X166.123 Y85.612 E0.01928
G1 X166.059 Y85.001 E0.01928
G1 X166.123 Y84.389 E0.01928
G1 X166.314 Y83.801 E0.01940
G1 X166.645 Y83.245 E0.02027
G1 X167.032 Y82.815 E0.01815
G1 X167.529 Y82.454 E0.01928
